public/img/casting-icon-8.svg

<svg width="49" height="49" viewBox="0 0 49 49" fill="none" xmlns="http://www.w3.org/2000/svg">
<g clip-path="url(#clip0)">
<path d="M48.3416 42.4348L48.3186 42.4118L48.3454 42.3812L47.664 41.8032L42.898 37.3779C42.898 37.3779 42.8137 37.4659 42.6759 37.5961C42.6759 37.5961 42.6223 37.6535 42.5496 37.7339C41.4624 38.7483 37.975 41.6845 33.8904 41.7419C33.7985 41.7419 33.7143 41.7419 33.6263 41.7419C31.4749 41.5046 29.377 40.3523 27.2486 38.2124C23.7152 34.6599 19.7875 32.7343 15.5613 32.4702C15.4426 32.4702 15.324 32.4702 15.2091 32.4702C14.5728 32.4138 13.9335 32.3972 13.2951 32.4204C6.92507 32.6807 2.19353 36.9491 0.585714 38.5952C0.252667 38.9168 0.0421131 39.135 0.00383186 39.1771L0.026823 39.2L0 39.2345L0.681417 39.8087L5.44358 44.2187C5.44358 44.2187 5.52783 44.1307 5.66564 43.9967L5.79191 43.8589C6.8791 42.8406 10.3627 39.9044 14.4512 39.8508C14.5392 39.8508 14.6272 39.8508 14.7153 39.8508C16.8667 40.0843 18.9645 41.2404 21.0929 43.3804C24.6263 46.9329 28.5539 48.8584 32.7802 49.1225C32.8989 49.1225 33.0176 49.1225 33.1324 49.1225C33.7688 49.1789 34.4081 49.1955 35.0465 49.1723C41.4127 48.912 46.148 44.6398 47.7559 42.9937C48.0889 42.676 48.2995 42.4578 48.3377 42.4118" fill="url(#paint0_linear)"/>
<path d="M38.0974 26.1655H29.9051C29.4793 26.1655 29.1141 25.8575 29.0429 25.4375L28.1808 20.3824C28.1248 20.0592 28.2554 19.7314 28.5191 19.5342C28.7816 19.3382 29.1328 19.3067 29.4279 19.449L31.4824 20.4559L33.2359 17.2837C33.5439 16.7249 34.4598 16.7249 34.7666 17.2837L36.5201 20.4559L38.5746 19.449C38.8698 19.3067 39.2221 19.3382 39.4834 19.5342C39.7471 19.7314 39.8778 20.058 39.8218 20.3824L38.9596 25.4375C38.8873 25.8575 38.5233 26.1655 38.0974 26.1655Z" fill="#5A2E91"/>
<path d="M44.5 7.5H43.3333V5.16667C43.3333 4.52267 42.8107 4 42.1667 4H41C40.356 4 39.8333 4.52267 39.8333 5.16667V7.5H28.1667V5.16667C28.1667 4.52267 27.644 4 27 4H25.8333C25.1893 4 24.6667 4.52267 24.6667 5.16667V7.5H23.5C21.5703 7.5 20 9.07033 20 11V28.5C20 30.4297 21.5703 32 23.5 32H44.5C46.4297 32 48 30.4297 48 28.5V11C48 9.07033 46.4297 7.5 44.5 7.5ZM44.5 29.6667H23.5C22.856 29.6667 22.3333 29.144 22.3333 28.5V14.5467H45.6667V28.5C45.6667 29.144 45.144 29.6667 44.5 29.6667Z" fill="#5A2E91"/>
</g>
<defs>
<linearGradient id="paint0_linear" x1="24.1727" y1="32.4103" x2="24.1744" y2="47.4681" gradientUnits="userSpaceOnUse">
<stop stop-color="#2A5BA6"/>
<stop offset="1" stop-color="#E2127E"/>
</linearGradient>
<clipPath id="clip0">
<rect width="49" height="49" fill="white"/>
</clipPath>
</defs>
</svg>

<svg width="49" height="49" fill="none" xmlns="http://www.w3.org/2000/svg"><g clip-path="url(#clip0)"><path d="M48.342 42.435l-.023-.023.026-.03-.681-.579-4.766-4.425s-.084.088-.222.218l-.126.138c-1.088 1.014-4.575 3.95-8.66 4.008h-.264c-2.151-.237-4.249-1.39-6.377-3.53-3.534-3.552-7.461-5.478-11.688-5.742h-.352a15.36 15.36 0 00-1.914-.05c-6.37.26-11.101 4.53-12.71 6.175-.332.322-.543.54-.581.582l.023.023-.027.034.681.575 4.763 4.41s.084-.088.222-.222l.126-.138c1.087-1.018 4.57-3.955 8.66-4.008h.263c2.152.233 4.25 1.39 6.378 3.53 3.533 3.552 7.46 5.477 11.687 5.742h.352c.637.056 1.276.073 1.915.05 6.366-.261 11.101-4.533 12.709-6.18.333-.317.544-.535.582-.581" fill="url(#paint0_linear)"/><path d="M38.097 26.166h-8.192a.875.875 0 01-.862-.729l-.862-5.055a.873.873 0 011.247-.933l2.054 1.007 1.754-3.172c.308-.56 1.224-.56 1.53 0l1.754 3.172 2.055-1.007a.88.88 0 01.908.085.872.872 0 01.339.848l-.862 5.055a.876.876 0 01-.863.729z" fill="#5A2E91"/><path d="M44.5 7.5h-1.167V5.167c0-.644-.522-1.167-1.166-1.167H41c-.644 0-1.167.523-1.167 1.167V7.5H28.167V5.167C28.167 4.523 27.644 4 27 4h-1.167c-.644 0-1.166.523-1.166 1.167V7.5H23.5C21.57 7.5 20 9.07 20 11v17.5c0 1.93 1.57 3.5 3.5 3.5h21c1.93 0 3.5-1.57 3.5-3.5V11c0-1.93-1.57-3.5-3.5-3.5zm0 22.167h-21a1.167 1.167 0 01-1.167-1.167V14.547h23.334V28.5c0 .644-.523 1.167-1.167 1.167z" fill="#5A2E91"/></g><defs><linearGradient id="paint0_linear" x1="24.173" y1="32.41" x2="24.174" y2="47.468" gradientUnits="userSpaceOnUse"><stop stop-color="#2A5BA6"/><stop offset="1" stop-color="#E2127E"/></linearGradient><clipPath id="clip0"><path fill="#fff" d="M0 0h49v49H0z"/></clipPath></defs></svg>
